X:1
T:Benedixisti Domine - Fux
T:#
%%score [ 1 2 3 4 ]
L:1/8
Q:1/4=200
M:none
K:C
V:1 treble nm="S" snm="S"
V:2 treble nm="A" snm="A"
V:3 treble-8 nm="T" snm="T"
V:4 bass nm="B" snm="B"
V:1
"^Benedixisti Domine""^Offertory for Advent III""^Johann Joseph Fux\n(1660-1741)" d8 A4 A4 | %1
w: Be- ne- di-|
 _B8 A4 (D4- | D2 E2 F2 G2 A2 E2 A4- | A4 G8 F4- | F4) G4 A4 d4- | d4 ^c4 d8- | d8 z8 | z16 | %8
w: xi- sti, Do\-|||* mi- ne, Do-|* mi- ne,|||
 d8 A4 A4 | _B8 A4 (d4- | d4 ^c4 d4) G4 | A16 | z16 | z8 z4 A4- | A4 ^G4 c8 | B4 e4 d4 B4 | %16
w: be- ne- di-|xi- sti, Do\-|* * * mi-|ne,||ter\-|* ram tu-|am, be- ne- di-|
 c8 B4 B4- | B4 A4 B8 | z16 | z4 d4 c4 A4 | B4 d4 e6 e2 | A16 | z8 z4 G4- | G4 ^F4 _B8 | %24
w: xi- sti, Do\-|* mi- ne,||be- ne- di-|xi- sti, Do- mi|ne,|ter\-|* ram tu-|
"^," A4 A8 G4 | (F4 E4) D8 | z8 z4 (A4- | A4 ^G4) c8 | B8 z8 | z16 | z8 c4 B4 | c8 B4 d4 | %32
w: am, ter- ram|tu\- * am,|ter\-|* ram tu-|am,||a- ver-|ti- sti ca-|
 B4 G4 c6 B2 | A8 G8- | G8 z8 | z8 G8 | A4 c4 B4 A4 | (G12 ^F4) | G8 z4 A4 | _B4 d4 (c4 B4) | %40
w: pti- vi- ta- tem|Ja- cob,||ca-|pti- vi- ta- tem|Ja\- *|cob, ca-|pti- vi- ta\- *|
 A4 (G8 F4 | E8) D8 | z8 _B4 A4 | _B8 A8- | A8 z8 | z4 G4 A4 c4 | _B4 A4 G8 | A16 | A16 || %49
w: tem Ja\- *|* cob,|a- ver-|ti- sti||ca- pti- vi-|ta\- * tem|Ja-|cob.|
[M:4/4] x8 |[M:4/4]"^Tempo ordinario."[Q:1/4=100] z8 | z2 _B4 A2 | _B4 AAAA | _B2 A4 A2- | %54
w: ||re- mi-|si- sti i- ni- qui-|ta- tem ple\-|
 A_B G2 A4 |[Q:1/4=100][Q:1/4=100][Q:1/4=100][Q:1/4=100] z8 | z AAA (_B4- | B2 A2) G2 G2- | %58
w: * bis tu- ae,||í- ni- qui- ta\-|* * tem ple\-|
 GF (F4 E2) | F8 || x8 |[Q:1/4=200] A8 _B4 d4 | (c4 _B4) A4 c4- | c4 _B4 A4 D4 | (G4 F2 E2 F4 G4) | %65
w: * bis tu\- *|ae;||o- pe- ru-|i\- * sti o\-|* mni- a pec-|ca\- * * * *|
 A4 d4 (d4 ^c4) | d8 z8 |[Q:1/4=200][Q:1/4=200][Q:1/4=200][Q:1/4=200] z16 | z16 | z16 | %70
w: ta e- o\- *|rum,||||
 z4 G4 A4 c4 | (B4 A4) (G4 F4 | E8) (F2 G2 A2 _B2 | c4 F4 G4 A4 | (_B4 G4 A4 B4) | c4 d8 c4 | %76
w: o- pe- ru-|i\- * sti, *|* o\- * * *|* mni- a pec-|ca\- * * *|ta, o- mni-|
 _B8 A8 | G4 E4) F4 G4 | A8 A8 | z8 c8 | d4 f4 (e4 d4 | c4 _B4) A8 | z16 | z8 z4 c4- | %84
w: a pec-|ca\- * ta e-|o- rum,|o-|pe- ru- i\- *|* * sti||o\-|
 c4 _B4 A4 d4- | d4 c4 _B4 B4 | A8 G4 G4 | (F8 E8) | D8 z8 | A8 _B4 d4 | (c4 _B4) A4 c4- | %91
w: * mni- a, o\-|* mni- a pec-|ca- ta e-|o\- *|rum,|o- pe- ru-|i\- * sti o\-|
[Q:1/4=400][Q:1/4=200][Q:1/4=400][Q:1/4=400][Q:1/4=400] c4 _B4 B4 A4 | G4 E4 (F4 G4 | %93
w: * mni- a pec-|ca\- * ta, *|
 A4)[Q:1/4=197] d8[Q:1/4=194] c4 |[Q:1/4=192] _B4[Q:1/4=190] A4[Q:1/4=187] G8 | %95
w: * o- mni-|a pec- ca-|
[Q:1/4=184] F4[Q:1/4=182] G4[Q:1/4=179] A8- |[Q:1/4=173] A16 |[Q:1/4=170] A16 |] %98
w: ta e- o\-||rum.|
V:2
 z16 | z16 | z16 | z8 A8 | D4 D4 F8 | E8 (F6 G2 | A6 A2 D8 | z8 G8 | D4 D4 F8 | D4 G8 F4 | %10
w: |||Be-|ne- di- xi-|sti, Do\- *|* mi- ne,|be-|ne- di- xi-|sti, Do- mi-|
 E4 (F6 E2 D4 | ^C4 D4 E6) E2 | D8 z4 D4- | D4 ^C4 F8 | E8 z4 A4 | G4 E4 F4 G4 | E6 E2 E8- | %17
w: ne, Do\- * *|* * * mi-|ne, ter\-|* ram tu-|am, be-|ne- di- xi- sti,|Do- mi- ne,|
 E8 z4 G4 | F4 D4 E8- | E4 D4 A6 A2 | D4 D8 ^C4 | F8 E8 | D16- | D16 | D8 z4 D4- | D4 ^C4 (F6 E2 | %26
w: * be-|ne- di- xi\-|* sti, Do- mi|ne, ter- ram|tu- am,|||* ter\-|* ram tu\- *|
 D8) E8- | E16 | E8 z8 | z8 F4 E4 | F8 E2 ^F2 G4- | G4 ^F4) G8 | z4 G4 E4 C4 | F6 E2 D8 | E8 z8 | %35
w: * am,|||a- ver-|ti\- * * *|* * sti|ca- pti- vi-|ta- tem Ja-|cob,|
 z4 D4 E4 G4 | F4 E4 D8 | E8 C8 | D4 G4 (F6 E2 | D2 E2 F2 D2 G2 F2 D2 E2 | F4 E2 D2) ^C4 (D4- | %41
w: ca- pti- vi-|ta- tem Ja-|cob, ca-|pti- vi- ta\- *||* * * tem Ja\-|
 D4 ^C4) D4 F4- | F4 E4 (^F8 | G8) =F8 | z8 z4 D4 | E4 G4 (F4 E4 | D2 E2 F8 E2 D2) | ^C4 (D8 C4) | %48
w: * * cob, a\-|* ver- ti\-|* sti|ca-|pti- vi- ta\- *||tem Ja\- *|
 D16 ||[M:4/4] x8 |[M:4/4] z4 z2 F2- | F2 E2 F4 | F8 | z FFF FE F2- | F2 D2 E2 E2 | z EEE (F4- | %56
w: cob.||re\-|* mi- si-|sti|i- ni- qui- ta- tem ple\-|* bis tu- ae,|i- ni- qui- ta\-|
 F2 ^F2) G2 (G2- | G2 F4 E2 | D2) B,2 C4 | C8 || x8 | z8 D8 | E4 G4 (F4 E4) | D4 G8 F4 | %64
w: * * tem ple\-||* bis tu-|ae;||o-|pe- ru- i\- *|sti o- mni-|
 E4 A,4 (D4 E4) | F4 F4 E8 | D8 z8 | z16 | z16 | z16 | z8 C8 | D4 F4 (E4 D4) | C8 z8 | z16 | z16 | %75
w: a pec- ca\- *|ta e- o-|rum,||||o-|pe- ru- i\- *|sti|||
 z8 z4 A4- | A4 G4 F4 F4 | E8 D4 E4 | (F4 ^C4) D8- | D8 z8 | F8 G4 _B4 | (A4 G4) F4 (G2 A2) | %82
w: o\-|* mni- a pec-|ca- ta e-|o\- * rum,||o- pe- ru-|i\- * sti pec\- *|
 (_B4 F4 G8) | C16 | z4 G8 F4 | E4 A8 G4- | G4 F8 E4- | E4 (D8 ^C4) | D8 z8 | z8 D8 | %90
w: ca\- * *|ta,|o- mni-|a pec- ca\-|* ta e\-|* o\- *|rum,|o-|
 E4 G4 (F4 E4) | D4 G8 F4 | E4 E4 (D4 E4 | F4) D4 z4 G4- | G4 F4 E4 E4 | (D6 E2) F4 F4 | E16 | %97
w: pe- ru- i\- *|sti o- mni-|a pec- ca\- *|* ta, o\-|* mni- a pec-|ca\- * ta e-|o-|
 D16 |] %98
w: rum.|
V:3
 z16 | z16 | d8 A4 A4 | _B8 A8 | _B6 B2 A8- | A8 z4 d4 | A4 A4 _B8 | A4 (d8 c4 | _B6 c2 d6) d2 | %9
w: ||Be- ne- di-|xi- sti,|Do- mi- ne,|* be-|ne- di- xi-|sti, Do\- *|* * * mi-|
 G8 z8 | A8 D4 D4 | F8 E4 (A4- | A4 G4 F6) F2 | E8 z8 | z16 | z16 | z4 A8 ^G4 | c8 B4 e4 | %18
w: ne,|be- ne- di-|xi- sti, Do\-|* * * mi-|ne,|||ter- ram|tu- am, be-|
 d4 B4 c8- | c4 B4 (A4 c4 | B6 A2 G6) G2 | A8 z4 A4- | A4 G4 (_B8 | A8) G8 | z16 | z8 z4 A4- | %26
w: ne- di- xi\-|* sti, Do\- *|* * * mi-|ne, ter-|* ram tu\-|* am,||ter\-|
 A4 ^G4 c8 | B12 (A4- | A4 ^G4) A4 c4- | c4 B4 ^c8 | d4 d4 (c2 d2) (e4- | e4 c4) d8- | d8 z8 | %33
w: * ram tu-|am, tu\-|* * am, a\-|* ver- ti-|sti, a- ver\- * ti\-|* * sti||
 z4 d4 B4 G4 | c6 B2 (A2 B2 c4- | c4 B4) c8 | z16 | z4 G4 A4 c4 | (B4 ^c4 d8) | G4 A4 G8 | z16 | %41
w: ca- pti- vi-|ta- tem Ja\- * *|* * cob,||ca- pti- vi-|ta\- * *|tem Ja- cob,||
 z8 z4 d4- | d4 ^c4 d8 | (G2 A2 _B2 c2 d8) | z4 A4 _B4 d4 | (c4 _B4 A4 G2 A2 | _B4) c8 (G4- | %47
w: a-|* ver- ti-|sti * * * *|ca- pti- vi-|ta\- * * * *|* tem Ja\-|
 G4 F4 E8) | D16 ||[M:4/4] x8 |[M:4/4][K:treble-8] z2 d4 c2 | (d2 _B2) c2 cc | d4 c4 | %53
w: |cob.||re- mi-|si\- * sti, re- mi-|si- sti|
 z ddd d2 ^c2 | d3 d ^c2 c2 | z4 z ^ccc | d8 | =c4 (d2 c_B | A2) (GF) G4 | A8 || x8 | z16 | z16 | %63
w: i- ni- qui- ta- tem|ple- bis tu- ae,|i- ni- qui-|ta-|tem ple\- * *|* bis * tu-|ae;||||
 z16 | z16 | z8 A8 | _B4 d4 (c4 B4) | A4 c8 _B4 | A4 D4 (G4 F2 E2) | F4 _B4 (B4 A4 | G8) F8 | %71
w: ||o-|pe- ru- i\- *|sti o- mni-|a pec- ca\- * *|ta e- o\- *|* rum,|
 z8 G8 | A4 c4 (_B4 A4) | G4 _B8 A4 | G4 c8 _B4 | A4 A4 (G4 c4) | (F4 G4 A4) d4- | d4 c4 _B4 B4 | %78
w: o-|pe- ru- i\- *|sti o- mni-|a, o- mni-|a pec- ca\- *|ta, * * o\-|* mni- a pec-|
 (A4 G4) F4 A4 | (_B4 A4 G8) | A8 z8 | c8 d4 f4 | (e4 d4) c4 _B4- | B4 A4 G4 G4 | d8 d8 | %85
w: ca\- * ta e-|o\- * *|rum,|o- pe- ru-|i\- * sti o\-|* mni- a pec-|ca- ta|
 z4 e4 (f4 e2 d2 | c16) | A8 z4 A4 | _B4 d4 (c4 B4 | A4 G4) F8 | z16 | z8 z4 d4- | d4 c4 _B4 B4 | %93
w: e- o\- * *||rum, o-|pe- ru- i\- *|* * sti||o\-|* mni- a pec-|
 A8 G4 G4 | (d6 c2) _B4 A4- | A4 d4 ^c4 d4 | (d4 ^c2 B2 c8) | d16 |] %98
w: ca- ta e-|o\- * rum, pec\-|* ca- ta e-|o\- * * *|rum.|
V:4
 z16 | z16 | z16 | z16 | z16 | A,8 D,4 D,4 | F,4 D,8 (G,4- | G,4 F,4 E,6) ^F,2 | G,8 z8 | z8 D,8 | %10
w: |||||Be- ne- di-|xi- sti, Do\-|* * * mi-|ne,|be-|
 A,,4 A,,4 _B,,8 | A,,4 (D,8 C,4 | _B,,6 B,,2 A,,8- | A,,8 z8 | z16 | z16 | z16 | z4 A,4 G,4 E,4 | %18
w: ne- di- xi-|sti, Do\- *|* mi- ne,|||||be- ne- di-|
 F,4 G,4 E,4 C,2 D,2 | E,2 F,2 G,8) ^F,4 | (G,6 F,2) E,4 E,4 | D,4 D,8 ^C,4 | (F,4 E,4 D,4 G,4) | %23
w: xi- sti, Do\- * *|* * * mi-|ne, * Do- mi-|ne, ter- ram|tu\- * * *|
 D,8 z4 G,4- | G,4 ^F,4 _B,8 | (A,6 G,2) (F,2 E,2 D,2 C,2 | B,,8) A,,8 | E,8 E,8- | E,8 z4 A,4- | %29
w: am, ter\-|* ram tu-|am, * tu\- * * *|* am,|tu- am,|* a\-|
 A,4 ^G,4 A,8 | (D,2 E,2 F,2 G,2) A,4 G,4 | A,8 G,8- | G,8 z8 | z8 z4 G,4 | E,4 C,4 F,6 E,2 | %35
w: * ver- ti-|sti, * * * a- ver-|ti- sti||ca-|pti- vi- ta- tem|
 D,8 C,8 | z4 C,4 D,4 F,4 | (E,2 D,2 C,2 B,,2 A,,4 A,4 | G,2 F,2 E,4) D,8 | z4 D,4 E,4 G,4 | %40
w: Ja- cob,|ca- pti- vi-|ta\- * * * * *|* * * tem,|ca- pti- vi-|
 F,4 G,4 A,8 | A,,8 z8 | z16 | z8 z4 D,4 | F,4 A,4 (G,4 F,4 | E,8) F,4 C,4 | G,4 F,4 C,4 _B,,4 | %47
w: ta- tem Ja-|cob,||ca-|pti- vi- ta\- *|* tem, ca-|pti- vi- ta- tem|
 A,,16 | D,16 ||[M:4/4] x8 |[M:4/4] z2 _B,4 A,2 | (_B,2 G,2) F,2 F,F, | _B,,4 F,F,F,F, | D,4 A,4 | %54
w: Ja-|cob.||re- mi-|si\- * sti, re- mi-|si- sti i- ni- qui-|a- tem|
 _B,2 B,2 A,2 A,2 | z4 z A,A,A, | D,2 D,2 (G,>A, G,F, | E,2) F,2 (_B,,2 C,2 | D,2) D,2 C,4 | %59
w: ple- bis tu- ae,|i- ni- qui-|a- tem ple\- * * *|* bis, ple\- *|* bis tu-|
 F,,8 || x8 | z16 | z16 | z16 | z16 | z16 | D,8 E,4 G,4 | (F,4 E,4) D,4 G,4- | G,4 F,4 E,4 A,,4 | %69
w: ae;|||||||o- pe- ru-|i\- * sti o\-|* mni- a pec-|
 (D,4 C,2 _B,,2) C,4 F,4 | (F,4 E,4) F,8 | z16 | C,8 D,4 F,4 | (E,4 D,4) C,4 F,4- | %74
w: ca\- * * ta e-|o\- * rum,||o- pe- ru-|i\- * sti o\-|
 F,4 E,4 D,4 G,4- | G,4 F,4 E,4 A,4 | (D,4 E,4 F,4) D,4 | z4 A,8 G,4 | F,4 E,4 (D,4 C,4) | %79
w: * mni- a, o\-|* mni- a pec-|ca\- * * ta,|o- mni-|a pec- ca\- *|
 _B,,4 F,4 (F,4 E,4) | F,8 z8 | z8 F,8 | G,4 _B,4 (A,4 G,2 F,2) | E,4 F,8 E,4 | %84
w: ta e- o\- *|rum,|o-|pe- ru- i\- * *|sti o- mni-|
 D,4 G,4 (D,2 E,2 F,2 G,2 | A,4 A,,4) D,4 E,4 | (F,8 C,8 | D,8) A,,8 | z4 D,4 E,4 G,4 | %89
w: a pec- ca\- * * *|* * ta e-|o\- *|* rum,|o- pe- ru-|
 (F,4 E,4) D,8 | z16 | z16 | z4 A,8 G,4 | F,4 F,4 E,8 | D,12 ^C,4 | (D,4 _B,,4 A,,8- | A,,16) | %97
w: i\- * sti|||o- mni-|a pec- ca-|ta e-|o\- * *||
 D,16 |] %98
w: rum.|

